X:1
T:Vostre oeil m'a dict
T:Pierre Certon
T:Source : Livre V de 25 chansons nouvelles à 4 parties---Paris---P.Attaingnant---1540. Editor : André Vierendeels (11/05/18). Notes : Original clefs : C1, C3, C3, F4 Original note values have been halved Editorial accidentals above the staff Square brackets indicate ligatures
T:Vostre oeil m'a dict
T:©
T:©
T:©
C:Pierre Certon
Z:©
%%score [ 1 [ 2 3 ] 4 ]
L:1/8
Q:1/4=120
M:2/2
K:F
V:1 treble nm="Alto" snm="A"
V:2 treble-8 nm="Tenor 1" snm="T 1"
V:3 treble-8 nm="Tenor 2" snm="T 2"
V:4 bass nm="Bass" snm="B"
V:1
 C4 D2 E2 | FEFG AB A2- | AGFE F4 | E2 G2 G4 | z2 A2 B2 B2 | G2 A2 G2 F2- | F2 E2 FFFC | %7
w: Vo- stre'oeil m'a|dict : _ _ _ _ _|_ _ _ _ _|* cher- chez,|cher- chez ail-|leurs par- * *|* * ty, pe- tit, pe-|
 FG A2 z FFF | GG A2 A2 AA | A2 G2 F3 E/D/ | E2 G2 B2 B2 | AGAB c4 | z2 F2 A2 A2 | G2 B2 A2 A2 | %14
w: tit a- my pe- tit, pe-|tit a- my im- por- tung|et fa- cheux, _ _|_ voy- ez vous|pas, _ _ _ _|voy- ez vous|pas mon a- spect|
 G2 G2 G4 | z4 F4 | F2 E2 FEFG | AB A3 GFE | F4 E2 A2 | A2 F2 G2 A2- | AG/F/ G2 A2 B2 | %21
w: gra- ci- eux,|es-|stre sur aul- * * *||* tre tout|en- tier des- par-|* * * * ty, des-|
 BAGF ED G2- | GF F4 E2 | F8 | F4 F2 E2 | FEFG AB A2- | AGFE F4 | E2 A2 A2 F2 | G2 A3 G/F/ G2 | %29
w: par- * * * * * *||ty.|es- tre sur|aul- * * * * * *||tre tout en- tier|des- par- * * *|
 A2 B2 BAGF | ED G3 F F2- | F2 E2 F4- | F8 |] %33
w: ty, des- par- * * *||* * ty.|_|
V:2
 A4 A2 c2 | d4 c3 B | A2 G4 F2 | G2 e2 e4 | z2 f2 f2 f2 | e6 c2 | c2 c2 cFcc | AGFf ecdd | %8
w: Vo- stre'oeil m'a|dict: _ _|_ _ _|* cher- chez,|cher- chez ail-|leurs par-|ty, pe- tit, pe- tit a-|my, pe- tit a- my, pe- tit, pe-|
 ee f2 f2 ff | f2 _e2 c4 | z2 c2 d2 d2 | f4 z2 c2 | d2 d2 f2 f2 | e2 g2 e2 f2 | d4 e4 | z4 c4 | %16
w: tit a- my im- por- tung|et fa- cheux,|voy- ez vous|pas, voy-|ez vous pas, mon-|a- spect gra- *|ci- eux,|es-|
 B2 c2 d4 | c3 B A2 G2- | G2 F2 G2 F2 | A2 A2 GF f2- | f2 e2 f2 f2 | f2 d2 c2 e2 | d2 B2 c4 | %23
w: tre sur aul-||* * tre tout|en- tier des- * par-|* * ty, tout|en- tier des- par-||
 A4 z4 | c4 B2 c2 | d4 c3 B | A2 G4 F2 | G2 F2 A2 A2 | GF f4 e2 | f2 f2 f2 d2 | c2 e2 d2 B2 | %31
w: ty,|es- tre sur|aul- * *||tre tout en- tier|des- * par- *|ty des- par- *||
 c4 A4- | A8 |] %33
w: * ty.|_|
V:3
 F4 F2 G2 | B4 A3 G | AB c4 B2 | c2 G2 c2 c2 | A2 c2 d2 d2 | c4 B2 A2 | G4 F2 z2 | c2 cF cAAF | %8
w: Vo- stre'oeil m'a|dict: _ _|_ _ _ _|* cher- chez, cher-|chez, cher- chez ail-|leurs par- *|* ty,|pe- tit, pe- tit a- my, pe-|
 ccAF c2 c2 | d2 B2 A2 A2 | G4 z4 | z2 F2 G2 G2 | B2 B2 AGAB | c2 d4 c2- |"^-natural" c2 B2 c4 | %15
w: tit, pe- tit a- my im-|por- tung et fa-|cheux,|voy- ez vous|pas mon a- * * *|spect gra- *|* ci- eux,|
 z4 A4 | F2 G2 B4 | A3 G AB c2- | c2 B2 c4 | z2 F2 c2 A2 | B2 B2 c2 d2- | dcBA G2 c2 | BAGF G4 | %23
w: es-|tre sur aul-|tre _ _ _ _|_ _ _|tout en- tier|des- par- * *|||
 F4 z4 | A4 F2 G2 | B4 A3 G | AB c4 B2 | c4 z2 F2 | c2 A2 B2 B2 | c2 d3 cBA | G2 c2 BAGF | G4 F4- | %32
w: ty,|es- tre sur|aul- * *||tre tout|en- tier des- par-|||* ty.|
 F8 |] %33
w: _|
V:4
 F,4 D,2 C,2 | B,,C,D,E, F,G, F,2- | F,E,D,C, D,4 | C,4 z2 C,2 | F,2 F,2 B,,2 B,,2 | %5
w: Vo- stre'oeil m'a|dict: _ _ _ _ _ _|_ _ _ _ _|* cher-|chez, cher- chez ail-|
 C,3 D, E,2 F,2 | C,4 F,,2 F,2 | F,C, F,2 z F,D,D, | C,C, F,2 F,2 F,F, | D,2 _E,2 F,4 | %10
w: leurs _ _ par-|* ty, pe-|tit a- my, pe- tit, pe-|tit a- my im- por- tung|et fa- *|
 C,4 z2 B,,2 | D,2 D,2 C,4 | z2 B,,2 F,2 F,2 | C,2 G,2 A,2 F,2 | G,2 G,2 C,4 | z4 F,4 | %16
w: cheux, voy-|ez vous pas,|voy- ez vous|pas mon a- spect|gra- ci- eux,|es-|
 D,2 C,2 B,,C,D,E, | F,G, F,3 E,D,C, | D,4 C,2 F,2 | F,2 D,2 E,2 F,2 | G,4 F,2 B,,2 | %21
w: tre sur aul- * * *||* tre tout|en- tier des- *|par- ty, tout|
 B,,2 B,,2 C,4 | D,4 C,4 | F,,4 z4 | F,4 D,2 C,2 | B,,C,D,E, F,G, F,2- | F,E,D,C, D,4 | %27
w: en- tier des-|* par-|ty,|es- tre sur|aul- * * * * * *||
 C,2 F,2 F,2 D,2 | E,2 F,2 G,4 | F,2 B,,2 B,,2 B,,2 | C,4 D,4 | C,4 F,,4- | F,,8 |] %33
w: tre tout en- tier|des- * par-|ty, tout en- tier|des- *|par- ty.|_|

